website/static/img/logo.svg

<svg width="513" height="513" viewBox="0 0 513 513" fill="none" xmlns="http://www.w3.org/2000/svg">
<g clip-path="url(#clip0_4_118)">
<path d="M191.2 334.481C191.6 331.676 191.6 328.87 191.6 326.065C191.6 313.24 187.2 301.218 180 292C190.8 301.618 204.8 308.031 220 309.634L221.6 310.034C224.4 312.038 228 315.244 232 318.45L266.8 390.588C268 394.996 268 398.603 268.4 401.408C268.4 401.408 268.4 399.805 269.2 397.401L270.8 401.408L280 362.134C283.2 354.519 286.4 346.905 289.6 342.095C299.6 356.523 314.4 366.943 332 371.351C331.2 373.355 330.8 376.16 330 377.763C301.6 417.84 303.6 502 303.6 502H230.8C230.8 502 235.2 415.034 218.4 391.79V391.389C213.6 377.363 207.2 364.538 198 353.317C196 347.706 193.6 340.893 191.2 334.481Z" fill="#C2B6FF"/>
<path d="M467.61 234.241C479.605 221.027 488.401 202.607 488.401 182.586C488.401 142.543 455.215 110.108 415.231 110.108C405.235 110.108 395.639 112.11 386.843 115.714C389.642 107.705 391.241 98.8956 391.241 90.0861C391.241 46.0388 355.655 10 311.274 10C281.686 10 256.096 26.0172 242.102 50.0431C228.108 32.8245 206.916 22.0129 183.326 22.0129C142.143 22.0129 111.356 54.8482 107.357 95.6922C83.3671 102.9 59.3769 127.727 59.3769 157.759C59.3769 168.17 61.7759 177.78 66.1741 186.189C30.5887 190.594 3 221.027 3 257.867C3 297.509 35.7866 329.944 75.3703 329.944C76.9697 329.944 79.3687 329.944 79.3687 329.544C83.3671 358.775 105.758 382 135.346 382C160.136 382 181.327 365.983 188.524 343.158C189.324 340.355 190.123 337.552 190.523 334.349C190.523 333.948 190.523 334.349 190.523 333.948C190.923 331.145 190.923 328.342 190.923 325.94C190.923 313.126 186.525 301.113 179.328 291.903C190.123 301.513 204.118 307.92 219.311 309.522C221.71 309.922 223.71 310.723 226.109 310.723L226.908 313.927C245.701 313.927 262.494 305.117 275.288 293.505C274.889 295.907 274.889 296.308 274.889 298.71C274.889 312.726 278.887 326.741 285.284 337.953L287.683 339.554L285.284 337.953C286.484 339.955 287.683 340.756 288.883 342.758C296.48 353.569 311.673 363.18 326.467 368.786L331.265 372.39C331.665 372.39 332.065 371.589 332.465 371.589C334.464 371.989 336.463 372.39 338.462 372.79C338.862 372.79 338.862 372.79 339.262 372.79C342.861 373.191 346.859 373.591 350.857 373.591C374.048 373.591 394.44 363.18 408.434 347.163C408.434 347.163 408.434 347.163 408.834 347.163C418.83 353.569 430.825 357.574 443.619 357.574C478.805 357.574 507.993 329.143 507.993 293.905C508.393 266.676 491.6 243.451 467.61 234.241Z" fill="#9585E5"/>
<path d="M136.053 387C106.842 387 82.4321 365.377 76.83 334.945C76.4298 334.945 76.0296 334.945 76.0296 334.945C34.0133 334.945 0 300.909 0 258.865C0 222.427 26.0101 191.194 61.624 184.387C58.4228 176.378 56.8222 167.569 56.8222 158.76C56.8222 127.126 81.2317 101.9 105.241 93.8915C110.443 50.2455 143.656 19.0126 184.872 19.0126C206.881 19.0126 228.089 28.2223 242.895 44.2392C258.501 21.0148 284.511 7 312.522 7C358.94 7 396.555 44.6396 396.555 91.0885C396.555 97.4953 395.754 104.302 394.154 110.309C401.356 108.307 408.959 107.105 416.562 107.105C458.979 107.105 493.392 141.542 493.392 183.586C493.392 201.605 486.99 219.223 474.985 234.039C498.194 245.251 513 268.876 513 295.303C513 332.543 482.188 362.975 444.173 362.975C432.169 362.975 420.564 359.771 410.16 353.765C394.954 370.182 373.746 379.392 351.737 379.392C345.335 379.392 338.932 378.591 332.53 376.989C332.129 376.989 331.729 376.989 330.929 376.589C312.922 371.784 297.316 360.973 286.512 345.757L285.711 344.956C284.511 343.354 283.711 342.153 282.51 340.151C275.307 328.138 271.706 315.325 271.306 301.71C260.902 309.719 245.296 318.528 226.888 318.528C224.888 318.528 223.287 318.127 221.686 318.127C220.886 318.127 220.086 317.727 219.285 317.727C210.482 316.926 201.278 313.322 192.075 307.717C194.476 314.123 195.276 320.53 195.276 327.337C195.276 330.14 194.876 333.343 194.476 336.146C194.076 339.35 193.275 342.553 192.075 345.757C184.872 370.182 162.063 387 136.053 387ZM84.0328 330.541C88.0343 358.97 109.243 378.992 136.053 378.992C158.862 378.992 178.47 364.576 185.672 342.954C186.473 340.151 187.273 337.348 187.673 334.545C188.073 332.142 188.073 329.339 188.073 326.937C188.073 315.325 184.472 304.513 177.269 295.303C176.069 293.702 176.069 291.299 177.669 290.098C179.27 288.496 181.671 288.496 182.871 290.098C196.076 301.71 208.881 308.517 220.886 309.719C221.686 309.719 222.887 310.119 223.687 310.119C225.288 310.519 226.488 310.519 227.689 310.519C248.497 310.519 265.303 297.706 273.707 290.098C274.907 288.897 276.908 288.897 278.108 289.297C279.709 290.098 280.509 291.7 280.509 293.301C280.509 294.903 280.509 296.905 280.509 298.907V299.708C280.509 312.522 283.711 324.534 290.513 335.746C291.314 337.348 292.114 338.549 293.314 339.75L294.115 340.551C303.718 354.165 318.124 364.176 334.13 368.18H334.53H334.931C340.533 369.782 346.535 370.182 352.537 370.182C373.346 370.182 393.353 360.973 406.959 344.956C408.159 343.354 410.56 342.954 412.161 344.155C421.764 350.562 432.969 353.765 444.573 353.765C478.186 353.765 505.397 326.937 505.397 294.102C505.397 268.876 490.591 246.852 467.382 238.043C465.782 237.643 464.981 236.041 464.981 234.439C464.981 233.639 465.381 232.437 466.182 231.636C478.987 217.622 486.19 200.003 486.19 182.385C486.19 144.745 455.378 113.913 417.363 113.913C408.159 113.913 398.555 115.915 390.552 119.118C388.952 119.919 387.351 119.518 386.151 118.317C384.95 117.116 384.55 115.514 384.95 113.913C387.751 106.305 388.952 97.8957 388.952 89.4868C388.952 47.4426 354.938 13.4067 312.922 13.4067C285.711 13.4067 260.502 27.8219 247.296 51.4468C246.496 52.648 245.296 53.4489 244.095 53.4489C242.895 53.4489 241.694 53.0485 240.494 51.8472C226.888 35.0295 206.481 25.4194 184.872 25.4194C147.257 25.4194 116.846 55.0506 112.844 95.4931C112.844 97.0948 111.644 98.6965 110.043 99.0969C88.0343 105.904 64.8253 129.129 64.8253 157.158C64.8253 166.368 66.8261 175.577 71.2278 183.986C71.6279 185.188 71.6279 186.389 71.2278 187.59C70.8276 188.791 69.6271 189.592 68.0265 189.592C34.0133 193.997 8.40328 222.827 8.40328 257.263C8.40328 294.903 38.8151 325.335 76.4298 325.335C77.2301 325.335 79.2309 325.335 79.631 325.335C81.2317 326.136 84.0328 328.138 84.0328 330.541Z" fill="#504685"/>
<path d="M105.158 196C104.764 196 103.977 196 103.584 195.611C94.9283 191.722 85.4859 189.778 75.6501 189.778C72.5026 189.778 70.142 189.778 67.388 190.167C65.4208 190.556 63.4537 189 63.0603 186.667C62.6668 184.722 64.2406 182.778 66.6012 182.389C69.3552 182 72.5026 182 75.6501 182C86.6662 182 96.8955 184.333 106.731 188.611C108.698 189.389 109.485 191.722 108.698 193.667C107.912 195.222 106.731 196 105.158 196Z" fill="#504685"/>
<path d="M79.9913 334C77.9957 334 76 332.407 76 330.417C76 328.028 77.5965 326.435 79.5922 326.037C92.3645 325.241 104.338 320.861 114.716 313.694C116.312 312.5 119.106 312.898 120.304 314.491C121.501 316.083 121.102 318.87 119.506 320.065C107.931 328.028 94.3601 332.806 79.9913 334C79.9913 334 80.3905 334 79.9913 334Z" fill="#504685"/>
<path d="M276 295C273.6 294.606 272 293.029 272 290.664C273.6 272.533 282 255.19 295.2 242.182C296.8 240.606 299.2 240.606 300.8 242.182C302.4 243.759 302.4 246.124 300.8 247.701C288.8 259.526 281.6 274.898 280 291.453C280 293.423 278 295 276 295Z" fill="#504685"/>
<path d="M179.926 296C179.111 296 177.889 295.598 177.074 294.795L176.667 294.394C176.259 293.992 175.444 293.591 175.037 292.788C159.556 278.332 151 258.656 151 237.776C151 229.745 152.222 222.116 154.667 214.888C155.481 212.88 157.519 211.675 159.963 212.077C162 212.88 163.222 214.888 162.815 217.297C160.778 223.722 159.556 230.95 159.556 237.776C159.556 256.649 167.296 274.317 181.148 287.166C181.556 287.568 181.963 287.969 182.37 288.371L182.778 288.772C184.407 290.378 184.407 292.788 182.778 294.394C181.963 295.598 181.148 296 179.926 296Z" fill="#504685"/>
<path d="M158.707 108C157.904 108 157.1 107.604 156.698 107.208C142.639 98.1002 125.367 95.3282 108.897 99.6841C106.889 100.08 104.479 98.8921 104.077 96.9122C103.675 94.9322 104.88 92.5562 106.889 92.1602C125.367 87.4083 145.049 90.5763 161.117 100.872C163.126 102.06 163.527 104.436 162.322 106.416C161.117 107.604 159.912 108 158.707 108Z" fill="#504685"/>
<path d="M409.153 352C408.358 352 407.564 351.584 407.167 351.169C400.416 346.597 394.458 340.778 389.693 334.544C388.501 332.881 388.898 329.972 390.487 328.725C392.076 327.478 394.856 327.894 396.047 329.556C400.416 335.375 405.578 340.363 411.138 344.519C413.124 345.766 413.521 348.259 412.33 350.338C411.933 351.169 410.741 352 409.153 352Z" fill="#504685"/>
<path d="M466.785 239C466.388 239 465.991 239 465.595 238.567C458.851 235.967 452.107 234.667 444.967 234.667C442.587 234.667 441 232.933 441 230.333C441 227.733 442.587 226 444.967 226C452.901 226 460.834 227.733 468.371 230.767C470.355 231.633 471.545 234.233 470.751 236.4C469.561 238.133 468.371 239 466.785 239Z" fill="#504685"/>
<path d="M254.325 76C252.797 76 251.27 75.1683 250.889 73.5048C248.216 66.0192 244.398 58.9495 239.816 52.7114C238.671 51.048 238.671 48.1369 240.198 46.8893C241.725 45.6417 244.398 45.6417 245.543 47.3052C250.889 54.3749 254.706 61.8605 257.761 70.1779C258.524 72.2572 257.379 74.7524 255.47 75.5841C255.088 75.5841 254.706 76 254.325 76Z" fill="#504685"/>
<path d="M311.959 174C309.584 174 308 172.381 308 169.952C308 167.523 309.584 165.904 311.959 165.904C344.031 165.904 372.935 144.853 383.229 113.682C384.021 111.658 386.001 110.444 388.376 111.254C390.356 112.063 391.544 114.087 390.752 116.516C379.27 150.521 347.594 174 311.959 174Z" fill="#504685"/>
<path d="M185.932 203C184.721 203 183.51 202.601 182.703 201.403C175.036 191.025 171 179.049 171 165.877C171 132.745 198.038 106 231.534 106C239.201 106 246.465 107.198 253.326 109.992C255.344 110.79 256.554 113.185 255.747 115.181C254.94 117.177 252.519 118.374 250.501 117.576C244.448 115.181 237.991 113.984 231.534 113.984C202.478 113.984 179.071 137.136 179.071 165.877C179.071 177.053 182.703 187.432 189.16 196.613C190.371 198.21 189.967 201.004 188.353 202.202C187.546 203 186.739 203 185.932 203Z" fill="#504685"/>
<path d="M303.257 506H230.79C228.401 506 226.808 504.404 226.808 502.01C226.808 455.721 224.817 423.399 214.863 393.87C214.863 393.471 214.465 393.072 214.465 392.673V392.274C209.687 378.308 203.316 366.736 194.954 356.361C192.167 353.168 189.38 349.976 186.195 346.784C184.602 345.188 184.602 342.793 186.195 341.197C187.787 339.601 190.176 339.601 191.769 341.197C195.352 344.788 198.538 347.981 201.325 351.572C210.085 362.745 217.252 375.514 222.428 390.279C222.428 390.678 222.826 391.077 222.826 391.476V391.875C232.781 421.404 235.17 453.327 235.17 498.019H299.674C299.674 480.462 301.266 411.827 326.749 375.913C327.147 375.514 327.546 374.716 327.944 374.317C328.74 373.519 329.138 372.322 329.935 371.524C331.129 369.928 333.916 369.529 335.509 370.726C337.102 371.923 337.5 374.716 336.305 376.313C335.907 376.712 335.509 377.51 334.713 378.308C334.315 379.106 333.916 379.505 333.518 380.303C306.044 418.611 308.035 500.812 308.035 501.611C308.035 502.808 307.637 503.606 306.841 504.404C305.248 505.601 304.452 506 303.257 506Z" fill="#504685"/>
<path d="M268.639 406C266.648 406 265.055 404.405 264.657 402.41C264.657 401.613 264.259 400.815 264.259 400.017C263.861 397.624 263.861 395.231 263.064 392.04C256.693 370.102 244.349 338.592 229.217 321.84C226.031 319.048 222.049 317.851 218.864 316.655C216.873 315.857 215.678 313.863 216.076 311.868C216.873 309.874 218.864 308.678 220.855 309.076C224.439 310.273 230.013 312.267 234.792 315.857C235.19 316.256 235.19 316.256 235.588 316.655C249.924 333.008 262.268 362.125 269.038 384.063C271.029 377.282 273.816 368.906 276.603 360.929C279.391 353.35 282.975 346.968 286.559 340.985C287.753 338.991 290.142 338.592 292.133 339.789C294.124 340.985 294.523 343.379 293.328 345.373C289.744 350.558 286.957 356.541 284.169 363.721C278.594 377.681 274.612 393.635 273.02 398.422C272.621 400.416 272.621 401.214 272.621 401.214C272.621 404.006 271.029 406 268.639 406C269.038 406 269.038 406 268.639 406Z" fill="#504685"/>
</g>
<defs>
<clipPath id="clip0_4_118">
<rect width="512.8" height="512.8" fill="white"/>
</clipPath>
</defs>
</svg>

<svg xmlns="http://www.w3.org/2000/svg" width="513" height="513" fill="none">
  <g clip-path="url(#a)">
    <path fill="#C2B6FF" d="M191.2 334.5c.4-2.8.4-5.6.4-8.4 0-12.9-4.4-24.9-11.6-34.1a71.6 71.6 0 0 0 40 17.6l1.6.4c2.8 2 6.4 5.2 10.4 8.4l34.8 72.2c1.2 4.4 1.2 8 1.6 10.8 0 0 0-1.6.8-4l1.6 4 9.2-39.3a135 135 0 0 1 9.6-20 72.8 72.8 0 0 0 42.4 29.3c-.8 2-1.2 4.8-2 6.4-28.4 40-26.4 124.2-26.4 124.2h-72.8s4.4-87-12.4-110.2v-.4c-4.8-14-11.2-26.9-20.4-38l-6.8-19Z"/>
    <path fill="#9585E5" d="M467.6 234.2a78.1 78.1 0 0 0 20.8-51.6 73 73 0 0 0-101.6-66.9A80 80 0 0 0 242.1 50a75.5 75.5 0 0 0-58.8-28c-41.2 0-72 32.8-76 73.7-24 7.2-48 32-48 62a61 61 0 0 0 6.9 28.5 72.2 72.2 0 0 0 9.2 143.7c1.6 0 4 0 4-.4 4 29.3 26.4 52.5 56 52.5a55.6 55.6 0 0 0 55.1-47.7v-.4c.4-2.8.4-5.6.4-8 0-12.8-4.4-24.8-11.6-34a71.6 71.6 0 0 0 40 17.6c2.4.4 4.4 1.2 6.8 1.2l.8 3.2a73 73 0 0 0 48.4-20.4c-.4 2.4-.4 2.8-.4 5.2 0 14 4 28 10.4 39.3l2.4 1.6-2.4-1.6c1.2 2 2.4 2.8 3.6 4.8 7.6 10.8 22.8 20.4 37.6 26l4.8 3.6c.4 0 .8-.8 1.2-.8l6 1.2h.8a76.2 76.2 0 0 0 69.2-25.6h.3a64.2 64.2 0 0 0 99.2-53.3 62.8 62.8 0 0 0-40.4-59.7Z"/>
    <path fill="#504685" d="M136 387c-29.2 0-53.6-21.6-59.2-52H76a76 76 0 0 1-14.4-150.6c-3.2-8-4.8-16.8-4.8-25.6 0-31.7 24.4-56.9 48.4-65C110.4 50.3 143.7 19 185 19c22 0 43.2 9.2 58 25.2a83.9 83.9 0 0 1 151.3 66.1A76.8 76.8 0 0 1 475 234a67.7 67.7 0 0 1 38 61.3 68.3 68.3 0 0 1-102.8 58.5 79.7 79.7 0 0 1-77.7 23.2c-.4 0-.8 0-1.6-.4a79.3 79.3 0 0 1-44.4-30.8l-.8-.8a77.9 77.9 0 0 1-14.4-43.2c-10.4 8-26 16.7-44.4 16.7-2 0-3.6-.4-5.2-.4-.8 0-1.6-.4-2.4-.4-8.8-.8-18-4.4-27.2-10a54.6 54.6 0 0 1 2.4 28.4c-.4 3.3-1.2 6.5-2.4 9.7a58.1 58.1 0 0 1-56 41.2Zm-52-56.5c4 28.5 25.2 48.5 52 48.5a52 52 0 0 0 51.7-44.5c.4-2.4.4-5.2.4-7.6 0-11.6-3.6-22.4-10.8-31.6-1.2-1.6-1.2-4 .4-5.2 1.6-1.6 4-1.6 5.2 0 13.2 11.6 26 18.4 38 19.6.8 0 2 .4 2.8.4 1.6.4 2.8.4 4 .4 20.8 0 37.6-12.8 46-20.4 1.2-1.2 3.2-1.2 4.4-.8 1.6.8 2.4 2.4 2.4 4v6.4a68 68 0 0 0 12.8 40l.8.9a70.4 70.4 0 0 0 40 27.6h.8a71.6 71.6 0 0 0 72-23.2c1.3-1.6 3.7-2 5.3-.8a60.3 60.3 0 0 0 93.2-50 59.1 59.1 0 0 0-38-56.2c-1.6-.4-2.4-2-2.4-3.6 0-.8.4-2 1.2-2.8 12.8-14 20-31.6 20-49.2a68.8 68.8 0 0 0-95.6-63.3c-1.6.8-3.2.4-4.4-.8-1.3-1.2-1.6-2.8-1.3-4.4a76 76 0 0 0-137.7-62.5c-.7 1.2-1.9 2-3.1 2-1.2 0-2.4-.4-3.6-1.6a71.4 71.4 0 0 0-55.6-26.4c-37.6 0-68 29.7-72 70a4 4 0 0 1-2.9 3.7c-22 6.8-45.2 30-45.2 58 0 9.3 2 18.5 6.4 26.9.4 1.2.4 2.4 0 3.6-.4 1.2-1.6 2-3.2 2a68.3 68.3 0 0 0 8.4 135.7h3.2c1.6.8 4.4 2.8 4.4 5.2Z"/>
    <path fill="#504685" d="M105.2 196c-.4 0-1.2 0-1.6-.4a67.8 67.8 0 0 0-28-5.8c-3.1 0-5.5 0-8.2.4-2 .4-4-1.2-4.3-3.5-.4-2 1.1-4 3.5-4.3 2.8-.4 5.9-.4 9-.4 11 0 21.3 2.3 31.1 6.6 2 .8 2.8 3.1 2 5-.8 1.6-2 2.4-3.5 2.4ZM80 334c-2 0-4-1.6-4-3.6 0-2.4 1.6-4 3.6-4.4a69.2 69.2 0 0 0 35.1-12.3 4.3 4.3 0 0 1 5.6.8c1.2 1.6.8 4.4-.8 5.6A81.4 81.4 0 0 1 80 334s.4 0 0 0Zm196-39c-2.4-.4-4-2-4-4.3a78.3 78.3 0 0 1 23.2-48.5 4 4 0 0 1 5.6 0c1.6 1.6 1.6 4 0 5.5a70.6 70.6 0 0 0-20.8 43.8c0 2-2 3.5-4 3.5Zm-96 1c-.9 0-2.1-.4-3-1.2l-.3-.4c-.4-.4-1.3-.8-1.7-1.6a74.8 74.8 0 0 1-20.3-78c.8-2 2.8-3.1 5.3-2.7 2 .8 3.2 2.8 2.8 5.2a67 67 0 0 0 18.3 69.9l1.3 1.2.4.4c1.6 1.6 1.6 4 0 5.6-.8 1.2-1.7 1.6-2.9 1.6Zm-21.3-188a3 3 0 0 1-2-.8 59.6 59.6 0 0 0-47.8-7.5c-2 .4-4.4-.8-4.8-2.8-.4-2 .8-4.3 2.8-4.7a68.8 68.8 0 0 1 54.2 8.7c2 1.2 2.4 3.5 1.2 5.5a5 5 0 0 1-3.6 1.6Zm250.5 244a3 3 0 0 1-2-.8 75.8 75.8 0 0 1-17.5-16.7c-1.2-1.6-.8-4.5.8-5.8 1.6-1.2 4.4-.8 5.5.9a75 75 0 0 0 15.1 15c2 1.2 2.4 3.7 1.2 5.7-.4.9-1.6 1.7-3.1 1.7Zm57.6-113c-.4 0-.8 0-1.2-.4a56.4 56.4 0 0 0-20.6-4c-2.4 0-4-1.7-4-4.3 0-2.6 1.6-4.3 4-4.3a62 62 0 0 1 23.4 4.8c2 .8 3.1 3.4 2.4 5.6-1.2 1.7-2.4 2.6-4 2.6ZM254.3 76c-1.5 0-3-.8-3.4-2.5a81.9 81.9 0 0 0-11-20.8c-1.2-1.7-1.2-4.6.3-5.8 1.5-1.3 4.2-1.3 5.3.4 5.4 7 9.2 14.6 12.3 22.9.7 2-.4 4.6-2.3 5.4-.4 0-.8.4-1.2.4Zm57.7 98c-2.4 0-4-1.6-4-4 0-2.5 1.6-4.1 4-4.1 32 0 61-21 71.2-52.2.8-2 2.8-3.3 5.2-2.4a4 4 0 0 1 2.4 5.2A83.8 83.8 0 0 1 312 174Zm-126 29c-1.3 0-2.5-.4-3.3-1.6a60.1 60.1 0 0 1 70.6-91.4c2 .8 3.3 3.2 2.4 5.2-.8 2-3.2 3.2-5.2 2.4a52 52 0 0 0-61.3 79c1.2 1.6.8 4.4-.8 5.6-.9.8-1.7.8-2.5.8Zm117.3 303h-72.5c-2.4 0-4-1.6-4-4 0-46.3-2-78.6-12-108.1l-.3-1.2v-.4a115.3 115.3 0 0 0-28.3-45.5 3.9 3.9 0 0 1 0-5.6c1.6-1.6 4-1.6 5.6 0a112 112 0 0 1 9.5 10.4 134 134 0 0 1 21.1 38.7c0 .4.4.8.4 1.2v.4c10 29.5 12.4 61.4 12.4 106.1h64.5c0-17.5 1.6-86.2 27-122l1.2-1.7c.8-.8 1.2-2 2-2.8 1.2-1.6 4-2 5.6-.8 1.6 1.2 2 4 .8 5.6-.4.4-.8 1.2-1.6 2l-1.2 2C306 418.6 308 500.8 308 501.6c0 1.2-.4 2-1.2 2.8-1.6 1.2-2.3 1.6-3.5 1.6Z"/>
    <path fill="#504685" d="M268.6 406c-2 0-3.5-1.6-4-3.6l-.3-2.4c-.4-2.4-.4-4.8-1.2-8-6.4-21.9-18.8-53.4-33.9-70.2-3.2-2.8-7.2-4-10.3-5.1-2-.8-3.2-2.8-2.8-4.8.8-2 2.8-3.2 4.8-2.8a49 49 0 0 1 14.7 7.6C249.9 333 262.3 362 269 384a513 513 0 0 1 7.6-23.2c2.8-7.5 6.4-14 10-20 1.2-2 3.5-2.3 5.5-1.1 2 1.2 2.4 3.6 1.2 5.6a87.5 87.5 0 0 0-9.1 18.3c-5.6 14-9.6 30-11.2 34.7-.4 2-.4 2.8-.4 2.8 0 2.8-1.6 4.8-4 4.8.4 0 .4 0 0 0Z"/>
  </g>
  <defs>
    <clipPath id="a">
      <path fill="#fff" d="M0 0h512.8v512.8H0z"/>
    </clipPath>
  </defs>
</svg>
